X:21
T:Jakie Stewart's Reel
M:C |
L:1/8
B:Thompson's Compleat Collection of 200 Favourite Country Dances, vol. 2 (London, 1765)
Z:Transcribed and edited by Flynn Titford-Mock, 2007
Z:abc's:AK/Fiddler's Companion
K:C
cg2e gcge | cg2e dBGB | cg2e gcge | afge dBGB :|
|: ceAe ceAe | ceAe d/c/B/A/ GB | ceAe ceAg | afge dBGB :|

